Papirus/64x64/apps/qvge.svg

<svg width="64" height="64" version="1" xmlns="http://www.w3.org/2000/svg">
 <rect x="4" y="5" width="56" height="56" rx="2.8" ry="2.8" style="opacity:.2"/>
 <rect x="4" y="4" width="56" height="56" rx="2.8" ry="2.8" style="fill:#e4e4e4"/>
 <path d="m32.000005 9.9999995a5 5 0 0 0-5 5.0000005 5 5 0 0 0 4 4.886719v5.113281h-2l3 3 3.000005-3h-2.000005v-5.113281a5 5 0 0 0 4.000005-4.886719 5 5 0 0 0-5.000005-5.0000005zm5.000005 5.0000005 3 3v-2h5.11327a5 5 0 0 0 4.88672 4 5 5 0 0 0 5-5 5 5 0 0 0-5-5.0000005 5 5 0 0 0-4.88672 4.0000005h-5.11327v-2zm12.99999 5-3 3h2v23.113281a5 5 0 0 0-3.88672 3.886719h-14.113275v-2l-3 3 3 3v-2h14.113275a5 5 0 0 0 4.88672 4 5 5 0 0 0 5-5 5 5 0 0 0-4-4.898438v-23.101562h2zm-21.999995 31a5 5 0 0 0-5-5 5 5 0 0 0-5 5 5 5 0 0 0 5 5 5 5 0 0 0 5-5zm4-23a5 5 0 0 0-4.886719 4h-5.113281v-2l-3 3 3 3v-2h5.113281a5 5 0 0 0 4.886719 4 5 5 0 0 0 5.000005-5 5 5 0 0 0-5.000005-5zm-13 5a5 5 0 0 0-5-5 5 5 0 0 0-5.0000003 5 5 5 0 0 0 5.0000003 5 5 5 0 0 0 5-5zm16.000005 4v3.888672l1.29687-1.296875 7.11132 7.111328-1.29687 1.296875h3.88867v-3.888672l-1.29687 1.296875-7.11133-7.111328 1.29688-1.296875z" style="font-variation-settings:normal;opacity:.1;stop-color:#000000"/>
 <path d="m50.000001 19 3 2.999999-2 1e-6 -1e-6 24h-1.999999l-1e-6 -24h-1.999999z" style="fill:#999999;stop-color:#000000"/>
 <path d="m19 31.999999 2.999999-3 1e-6 2 6 1e-6v1.999999l-6 1e-6v1.999999z" style="fill:#999999;stop-color:#000000"/>
 <circle cx="32" cy="32" r="5" style="fill:#c162c9;stop-color:#000000"/>
 <circle cx="14" cy="32" r="5" style="fill:#009688;stop-color:#000000"/>
 <path d="m32 27-3-2.999999 2-1e-6 1e-6 -6h1.999999l1e-6 6h1.999999z" style="fill:#999999;stop-color:#000000"/>
 <circle cx="32" cy="14" r="5" style="fill:#03a9f4;stop-color:#000000"/>
 <path d="m37 14 2.999999-3 1e-6 2 6 1e-6v1.999999l-6 1e-6v1.999999z" style="fill:#999999;stop-color:#000000"/>
 <circle cx="50" cy="14" r="5" style="fill:#ffc107;stop-color:#000000"/>
 <path d="m28 50 3-3v2h15v2h-15v2z" style="fill:#999999;stop-color:#000000"/>
 <circle cx="23" cy="50" r="5" style="fill:#ffffff;stop-color:#000000"/>
 <path d="m35 36v3.889089l1.296362-1.296364 7.110913 7.110913-1.296362 1.296362h3.889087v-3.889088l-1.296362 1.296363-7.110912-7.110913 1.296362-1.296362z" style="fill:#999999;stop-color:#000000"/>
 <circle cx="50" cy="50" r="5" style="fill:#fa3e30;stop-color:#000000"/>
 <path d="M 6.8007812 4 C 5.2495812 4 4 5.2495812 4 6.8007812 L 4 7.8007812 C 4 6.2495813 5.2495812 5 6.8007812 5 L 57.199219 5 C 58.750419 5 60 6.2495812 60 7.8007812 L 60 6.8007812 C 60 5.2495813 58.750419 4 57.199219 4 L 6.8007812 4 z" style="fill:#ffffff;opacity:.2"/>
 <path d="m32 9a5 5 0 0 0-5 5 5 5 0 0 0 0.078125 0.5 5 5 0 0 1 4.921875-4.5 5 5 0 0 1 4.949219 4.326172 5 5 0 0 0 0.050781-0.326172 5 5 0 0 0-5-5zm18 0a5 5 0 0 0-5 5 5 5 0 0 0 0.078125 0.5 5 5 0 0 1 4.921875-4.5 5 5 0 0 1 4.949219 4.326172 5 5 0 0 0 0.050781-0.326172 5 5 0 0 0-5-5zm-36 18a5 5 0 0 0-5 5 5 5 0 0 0 0.078125 0.5 5 5 0 0 1 4.921875-4.5 5 5 0 0 1 4.949219 4.326172 5 5 0 0 0 0.050781-0.326172 5 5 0 0 0-5-5zm18 0a5 5 0 0 0-5 5 5 5 0 0 0 0.078125 0.5 5 5 0 0 1 4.921875-4.5 5 5 0 0 1 4.949219 4.326172 5 5 0 0 0 0.050781-0.326172 5 5 0 0 0-5-5zm-9 18a5 5 0 0 0-5 5 5 5 0 0 0 0.078125 0.5 5 5 0 0 1 4.921875-4.5 5 5 0 0 1 4.949219 4.326172 5 5 0 0 0 0.050781-0.326172 5 5 0 0 0-5-5zm27 0a5 5 0 0 0-5 5 5 5 0 0 0 0.078125 0.5 5 5 0 0 1 4.921875-4.5 5 5 0 0 1 4.949219 4.326172 5 5 0 0 0 0.050781-0.326172 5 5 0 0 0-5-5z" style="fill:#ffffff;opacity:.2;stop-color:#000000"/>
</svg>

<svg xmlns="http://www.w3.org/2000/svg" width="64" height="64" version="1">
 <rect style="opacity:0.2" width="56" height="56" x="4" y="5" rx="2.8" ry="2.8"/>
 <rect style="fill:#e4e4e4" width="56" height="56" x="4" y="4" rx="2.8" ry="2.8"/>
 <g style="opacity:0.1">
  <path d="M 35,37 V 41 L 36.296,39.593 43.407,46.704 42,48 H 46 V 44 L 44.704,45.407 37.593,38.296 39,37 Z M 28,51 31,48 V 50 H 46 V 52 H 31 V 54 Z M 37,15 40,12 V 14 H 46 V 16 H 40 V 18 Z M 32,28 29,25 H 31 V 19 H 33 V 25 H 35 Z M 19,33 22,30 V 32 H 28 V 34 H 22 V 36 Z M 50,20 53,23 H 51 V 47 H 49 V 23 H 47 Z"/>
  <path d="M 32,10 A 5,5 0 0 0 27,15 5,5 0 0 0 32,20 5,5 0 0 0 37,15 5,5 0 0 0 32,10 Z M 50,10 A 5,5 0 0 0 45,15 5,5 0 0 0 50,20 5,5 0 0 0 55,15 5,5 0 0 0 50,10 Z M 14,28 A 5,5 0 0 0 9,33 5,5 0 0 0 14,38 5,5 0 0 0 19,33 5,5 0 0 0 14,28 Z M 32,28 A 5,5 0 0 0 27,33 5,5 0 0 0 32,38 5,5 0 0 0 37,33 5,5 0 0 0 32,28 Z M 23,46 A 5,5 0 0 0 18,51 5,5 0 0 0 23,56 5,5 0 0 0 28,51 5,5 0 0 0 23,46 Z M 50,46 A 5,5 0 0 0 45,51 5,5 0 0 0 50,56 5,5 0 0 0 55,51 5,5 0 0 0 50,46 Z"/>
 </g>
 <path style="fill:#999999" d="M 35,36 V 40 L 36.296,38.593 43.407,45.704 42,47 H 46 V 43 L 44.704,44.407 37.593,37.296 39,36 Z M 28,50 31,47 V 49 H 46 V 51 H 31 V 53 Z M 37,14 40,11 V 13 H 46 V 15 H 40 V 17 Z M 32,27 29,24 H 31 V 18 H 33 V 24 H 35 Z M 19,32 22,29 V 31 H 28 V 33 H 22 V 35 Z M 50,19 53,22 H 51 V 46 H 49 V 22 H 47 Z"/>
 <circle style="fill:#c162c9" cx="32" cy="32" r="5"/>
 <circle style="fill:#009688" cx="14" cy="32" r="5"/>
 <circle style="fill:#03a9f4" cx="32" cy="14" r="5"/>
 <circle style="fill:#ffc107" cx="50" cy="14" r="5"/>
 <circle style="fill:#f4f4f4" cx="23" cy="50" r="5"/>
 <circle style="fill:#fa3e30" cx="50" cy="50" r="5"/>
 <path style="fill:#ffffff;opacity:0.2" d="M 32 9 A 5 5 0 0 0 27 14 A 5 5 0 0 0 27.078 14.5 A 5 5 0 0 1 32 10 A 5 5 0 0 1 36.949 14.326 A 5 5 0 0 0 37 14 A 5 5 0 0 0 32 9 z M 50 9 A 5 5 0 0 0 45 14 A 5 5 0 0 0 45.078 14.5 A 5 5 0 0 1 50 10 A 5 5 0 0 1 54.949 14.326 A 5 5 0 0 0 55 14 A 5 5 0 0 0 50 9 z M 14 27 A 5 5 0 0 0 9 32 A 5 5 0 0 0 9.0781 32.5 A 5 5 0 0 1 14 28 A 5 5 0 0 1 18.949 32.326 A 5 5 0 0 0 19 32 A 5 5 0 0 0 14 27 z M 32 27 A 5 5 0 0 0 27 32 A 5 5 0 0 0 27.078 32.5 A 5 5 0 0 1 32 28 A 5 5 0 0 1 36.949 32.326 A 5 5 0 0 0 37 32 A 5 5 0 0 0 32 27 z M 23 45 A 5 5 0 0 0 18 50 A 5 5 0 0 0 18.078 50.5 A 5 5 0 0 1 23 46 A 5 5 0 0 1 27.949 50.326 A 5 5 0 0 0 28 50 A 5 5 0 0 0 23 45 z M 50 45 A 5 5 0 0 0 45 50 A 5 5 0 0 0 45.078 50.5 A 5 5 0 0 1 50 46 A 5 5 0 0 1 54.949 50.326 A 5 5 0 0 0 55 50 A 5 5 0 0 0 50 45 z"/>
 <path style="fill:#ffffff;opacity:0.2" d="M 6.8008 4 C 5.2496 4 4 5.2496 4 6.8008 L 4 7.8008 C 4 6.2496 5.2496 5 6.8008 5 L 57.199 5 C 58.75 5 60 6.2496 60 7.8008 L 60 6.8008 C 60 5.2496 58.75 4 57.199 4 L 6.8008 4 z"/>
</svg>
